src/icons/stylable.svg

<?xml version="1.0" encoding="UTF-8"?>
<svg
  class="mainLogo_Gh97"
  role="img"
  version="1.1"
  viewBox="0 0 30 30"
  xmlns="http://www.w3.org/2000/svg"
>
  <title>96-logo-horizontal</title>
  <g fill-rule="evenodd" stroke-width=".24671">
    <path
      d="m10.942 3.6149c-1.9438 0.82697-6.386 5.0847-6.4011 8.4394 0.026151 3.4682 4.4573 7.6124 6.4011 8.4396 0.44555 0.18947 1.1373 0.45148 1.8676 0.45148 0.66611 0 1.2301-0.32837 1.8039-1.0189 0.96463-1.1603 0.84868-2.8288-0.43692-3.7756-1.5385-1.1324-2.7974-2.1488-2.8236-4.0966 0.02615-1.9475 1.2854-3.3069 2.8236-4.4395 1.2854-0.94687 1.536-2.3832 0.57138-3.5435-0.57384-0.69029-1.2723-0.90838-1.9384-0.90838-0.73026 0-1.422 0.26225-1.8676 0.45197z"
      fill="#66bb6a"
    />
    <path
      d="m12.711 8.9336c-0.35412 0.40687-0.68386 0.81786-0.98438 1.2305-0.50192 0.6405-0.93388 1.3141-1.2832 1.9922l-4e-3 4e-3c-0.0053 0.01028-0.01037 0.02096-0.01563 0.03125-0.0084 0.01655-0.01543 0.03216-0.02539 0.05274-0.44087 0.87404-0.74671 1.7541-0.89258 2.582-5.819e-4 0.0033-0.00138 0.0065-0.00195 0.0098-0.56824 2.6481 0.23752 4.9234 2.625 6.0254 0.9439 0.32812 1.7531-0.05206 2.4902-0.89062 0.85312-0.9703 0.95802-2.8957-0.38086-3.8203-1.877-1.296-2.8353-2.5319-2.8242-4.1152 0.01123-1.5711 0.88724-2.6271 1.2969-3.1016z"
      fill="#01579b"
    />
    <path
      d="m17.23 26.837c-0.66266 0-1.3579-0.21809-1.929-0.90789-0.95994-1.1598-0.70904-2.5951 0.57014-3.5412 1.5311-1.1319 2.7826-2.4908 2.8088-4.4373-0.02615-1.9465-1.2792-3.2393-2.8088-4.3771-1.1292-0.83979-1.5301-2.4414-0.57014-3.6014 0.57113-0.6898 1.2661-0.90789 1.9293-0.90789 0.7268 0 1.4151 0.26225 1.8587 0.45148 1.9342 0.82647 6.336 4.9583 6.37 8.435-0.01086 3.277-4.4358 7.6082-6.37 8.435-0.44358 0.18922-1.1319 0.45148-1.8589 0.45148z"
      fill="#ff1744"
    />
    <path
      d="m17.219 9.0195c-0.71662-0.010986-1.419 0.32402-1.9746 0.95312-0.85756 0.97006-0.71323 2.7118 0.63281 3.6367 1.8866 1.296 2.7865 2.7816 2.7754 4.3652-0.01283 1.7955-1.1611 2.9192-1.4473 3.2695 0.65551-0.48148 1.22-1.0441 1.6992-1.6562-0.035692 0.067586-0.07231 0.1278-0.10547 0.17188 0.49718-0.58431 0.91997-1.282 1.248-2.0254 0.026265-0.056449 0.057854-0.12843 0.089844-0.20703 0.008626-0.021195 0.016442-0.03789 0.02539-0.060547 0.23085-0.57017 0.404-1.1632 0.51562-1.75 0.13496-0.65507 0.20688-1.3516 0.11914-1.9355-0.004876-0.058934-0.008969-0.11779-0.015625-0.17578-0.15854-1.9461-1.0906-3.651-2.8457-4.457-0.23727-0.08203-0.47792-0.12524-0.7168-0.12891z"
      fill="#b71c1c"
      style="mix-blend-mode: multiply"
    />
  </g>
</svg>

<svg
  width="30"
  height="30"
  viewBox="0 0 30 30"
  fill="none"
  xmlns="http://www.w3.org/2000/svg"
>
  <path
    fill-rule="evenodd"
    clip-rule="evenodd"
    d="M10.942 3.6149C8.9982 4.44187 4.556 8.6996 4.5409 12.0543C4.56705 15.5225 8.9982 19.6667 10.942 20.4939C11.3876 20.6834 12.0793 20.9454 12.8096 20.9454C13.4757 20.9454 14.0397 20.617 14.6135 19.9265C15.5781 18.7662 15.4622 17.0977 14.1766 16.1509C12.6381 15.0185 11.3792 14.0021 11.353 12.0543C11.3791 10.1068 12.6384 8.74738 14.1766 7.61478C15.462 6.66791 15.7126 5.23158 14.748 4.07128C14.1741 3.38099 13.4757 3.1629 12.8096 3.1629C12.0793 3.1629 11.3876 3.42518 10.942 3.6149Z"
    fill="#B71C1C"
  />
  <path
    fill-rule="evenodd"
    clip-rule="evenodd"
    d="M17.23 26.837C16.5673 26.837 15.8721 26.6189 15.301 25.9291C14.3411 24.7693 14.592 23.334 15.8711 22.3879C17.4022 21.256 18.6537 19.8971 18.6799 17.9506C18.6538 16.0041 17.4007 14.7113 15.8711 13.5735C14.7419 12.7337 14.341 11.1321 15.301 9.97211C15.8721 9.28231 16.5671 9.06422 17.2303 9.06422C17.9571 9.06422 18.6454 9.32647 19.089 9.5157C21.0232 10.3422 25.425 14.474 25.459 17.9507C25.4481 21.2277 21.0232 25.5589 19.089 26.3857C18.6454 26.5749 17.957 26.837 17.23 26.837Z"
    fill="#B71C1C"
  />
</svg>
